!!!OTL: John Anderson
!!!id: HA002
**kern
*clefF4
*k[f#]
*G:
*M2/2
{4f#
=1
4d
4g
4g
4a
=2
2b
4b}
{4cc
=3
4a
4f#
4f#
4f#
=4
2f#}
4r
{4f#
=5
4d
4g
4g
4a
=6
2b
4b}
{4cc
=7
4.dd
8cc
4b
4cc
=8
2dd}
4r
{4ff#
=9
4.dd
8cc
4b
4dd
=10
2ff#
4ee}
{4dd
=11
4cc
4b
4a
4b
=12
2cc}
4r
{4cc
=13
4dd
4b
4cc
4a
=14
4b
4g
4a}
{4f#
=15
4d
4g
8b
8a
8g
8f#
=16
2.g}
==
*-
!!!minrhy: 8
!!!meter: 2/2
!!!cut: John Anderson
!!!key: HA002  08  G 2/2
!!!bem: Vorschlge weggelassen, letzte Zeile bei 7 => # weggelassen
!!!fog: a--b--a--c--cw-d--e--f--
!! Haydn: Volksliedbearbeitungen, Bd1
